!!!!SEGMENT: pl-kk--kk-i-386--001-007_anonim--missa-prima-benedictus.krn
!!!cenid: 18xx:4505
!!!COM: Anonim
!!!COM-rismID: pe30004985
!!!CDT:
!!!CNT:
!!!OPR: [Missa prima]
!!!OTL: Benedictus
!!!OMV: 007
!!!PDT:
!!!AGN: Sacred
!!!YEC: Copyright 2022 Narodowy Instytut Fryderyka Chopina (https://polishscores.org)
!!!YEM: License CC-BY-4.0 (https://creativecommons.org/licenses/by/4.0)
!!!SMS-siglum: PL-Kk
!!!SMS-shelfmark: Kk.I.386
!!!SMS-variant:
!!!SMS-altvar:
!!!SMS-shelfwork: 001-007 M
!!!NIFC-rismSourceID: 1001218240
!!!NIFC-rismChildID: 1001218242
!!!NIFC-islandoraID: pl-kk:16060
!!!URL-pdf-islandora: https://repozytorium.nifc.pl/islandora/object/pl-kk%3A16060/datastream/PDF/view
!!!URL-scan: https://polish.musicsources.pl/pl/lokalizacje/galeria/rekopisy/7134/3 @EN{Scan on Polish Music Sources Website} @PL{Skany w portalu Dziedzictwo Muzyki Polskiej w otwartym dostępie}
!!!IIIF:
!!!ONB-nifc: UWAGA: Części Missy Prima: Rorate, Kyrie, Gloria, Graduale, Offertorium, Sanctus, Benedicuts, Agnus, Dona. Zakres skanów: S – 3-6, A – 12-15, T – 22-25, B – 32-25
!!!AIN: 1 alto 1 bass 1 soprn 1 tenor
!!!key:
**kern	**text	**kern	**text	**kern	**text	**dynam	**kern	**dynam	**text
*part4	*part4	*part3	*part3	*part2	*part2	*part2	*part1	*	*part1
*staff4	*staff4	*staff3	*staff3	*staff2	*staff2	*	*staff1	*	*staff1
*I"Basso.	*	*I"Tenore.	*	*I"Alto.	*	*	*I"Soprano.	*	*
*I'B.	*	*I'T.	*	*I'A.	*	*	*I'S.	*	*
*Ibass	*	*Itenor	*	*Ialto	*	*	*Isoprn	*	*
*ICvox	*	*ICvox	*	*ICvox	*	*	*ICvox	*	*
*clefF4	*	*clefC4	*	*clefC3	*	*	*clefC1	*	*
*k[b-e-]	*	*k[b-e-]	*	*k[b-e-]	*	*	*k[b-e-]	*	*
*B-:	*	*B-:	*	*B-:	*	*	*B-:	*	*
*M4/4	*	*M4/4	*	*M4/4	*	*	*M4/4	*	*
*met(c)	*	*met(c)	*	*met(c)	*	*	*met(c)	*	*
!	!	!	!	!LO:TX:a:t=Andante	!	!	!LO:TX:a:t=Andante.	!	!
!LO:TX:a:t=in B.	!	!LO:TX:a:t=in B.	!	!LO:TX:a:t=in B.	!	!LO:DY:b	!LO:TX:a:t=In B.	!	!
4F\	Be-	4F/	Be-	4f\	Be-	p	4f/	.	Be-
=1	=1	=1	=1	=1	=1	=1	=1	=1	=1
4.B-\	.	4.F/	.	4.d\	.	.	4.b-\	.	.
8F\	-ne-	8A\	-ne-	8f\	-ne-	.	8cc\	.	-ne-
8.B-\L	-dic-	8.B-\L	-dic-	4f\	-dic-	.	8.dd\L	.	-dic-
16F\Jk	.	16A\Jk	.	.	.	.	16cc\Jk	.	.
8.B-\	-tus	8.B-\	-tus	8.f\	-tus	.	8.dd\	.	-tus
16E-\	qui	16c\	qui	16g\	qui	.	16ee-\	.	qui
=2	=2	=2	=2	=2	=2	=2	=2	=2	=2
4F\	ve-	4B-\	ve-	4f\	ve-	.	4dd\	.	ve-
4F\	-nit	4A\	-nit	4f\	-nit	.	4cc\	.	-nit
4r	.	4r	.	4r	.	.	4r	.	.
4F\	ve-	4A\	ve-	4f\	ve-	.	4cc\	.	ve-
=3	=3	=3	=3	=3	=3	=3	=3	=3	=3
4.D\	-nit	4.B-\	-nit	4.f\	-nit	.	4.ff\	.	-nit
8D\	in	8B-\	in	8f\	in	.	8b-\	.	in
!	!	!	!	!	!	!	!LO:LB:g=original	!	!
4E-\	no-	4B-\	no-	4g\	no-	.	8ee-\L	.	no-
.	.	.	.	.	.	.	8dd\J	.	.
8En\	-mi-	8c\	-mi-	8g\	-mi-	.	8cc\	.	-mi-
8E\	-ne	8c\	-ne	8g\	-ne	.	8b-\	.	-ne
!LO:LB:g=original	!	!LO:LB:g=original	!	!LO:LB:g=original	!	!	!	!	!
=4	=4	=4	=4	=4	=4	=4	=4	=4	=4
8F\	Do-	8B-\	Do-	8f\	Do-	.	8dd\	.	Do-
8F\	-mi-	8B-\	-mi-	8f\	-mi-	.	8dd\	.	-mi-
4F\	-ni,	4A\	-ni	4f\	-ni	.	4cc\	.	-ni,
4r	.	4r	.	4r	.	.	4r	.	.
4F\	qui	4F/	qui	4f\	qui	.	4f/	.	qui
=5	=5	=5	=5	=5	=5	=5	=5	=5	=5
4.BB-/	ve-	4.F/	ve-	4.d\	ve-	.	4.b-\	.	ve-
8F\	.	8A\	.	8f\	.	.	8cc\	.	.
8.B-\L	-nit	8.B-\L	-nit	4f\	-nit	.	8.dd\L	.	-nit
16F\Jk	.	16A\Jk	.	.	.	.	16cc\Jk	.	.
8.B-\L	qui	8.B-\L	qui	8.f\L	qui	.	8.dd\L	.	qui
16E-\Jk	.	16c\Jk	.	16g\Jk	.	.	16ee-\Jk	.	.
=6	=6	=6	=6	=6	=6	=6	=6	=6	=6
4F\	ve-	4B-\	ve-	4f\	ve-	.	4dd\	.	ve-
!	!	!	!	!	!	!LO:DY:b	!	!	!
4FZ\	-nit	4AZ\	-nit	4fZ\	-nit	f	4ccZ\	.	-nit
*	*	*2\right	*	*2\right	*	*	*2\right	*	*
2D\	in	2B-\	in	2a-X\	in	.	2ff\	f	in
=7	=7	=7	=7	=7	=7	=7	=7	=7	=7
4E-\	no-	8B-\L	no-	4g\	no-	.	8ff\L	.	no-
.	.	8Bn\J	.	.	.	.	8dd\J	.	.
8E-\	-mi-	8c\	-mi-	8g\L	-mi-	.	8.ee-X\	.	-mi-
8E-\	-ne	8e-\	-ne	8g\J	-ne	.	.	.	.
.	.	.	.	.	.	.	16gg\	.	-ne
!	!	!	!	!	!	!	!LO:LB:g=original	!	!
4F\	Do-	4d\	Do-	4f\	Do-	.	4b-\	.	Do-
.	.	.	.	.	.	.	16qqcc/LL	.	.
.	.	.	.	.	.	.	16qqb-/	.	.
.	.	.	.	.	.	.	16qqa/	.	.
.	.	8qf/	.	.	.	.	16qqb-/JJ	.	.
4F\	-mi-	4e-\	-mi-	4f\	-mi-	.	8dd\L	.	-mi-
.	.	.	.	.	.	.	8cc\J	.	.
=8	=8	=8	=8	=8	=8	=8	=8	=8	=8
.	.	.	.	.	.	.	8qcc/	.	.
2BB-/	-ni,	2d\	-ni,	2f\	-ni	.	2b-\	.	-ni
!LO:LB:g=original	!	!LO:LB:g=original	!	!	!	!	!	!	!
4r	.	4r	.	4r	.	.	4r	.	.
4F\	qui	4A\	qui	4f\	qui	.	4cc\	.	qui
!	!	!	!	!LO:LB:g=original	!	!	!	!	!
=9	=9	=9	=9	=9	=9	=9	=9	=9	=9
4F\	ve-	4A\	ve-	4f\	ve-	.	4cc\	.	ve-
8F\	-nit	8A\	-nit	8.f\	-nit	.	8cc\	.	.
8F\	in	8A\	in	.	.	.	8cc\	.	-niy
.	.	.	.	16f\	in	.	.	.	.
4F\	no-	4A\	no-	4f\	no-	.	4cc\	.	no-
8D\	-mi-	8Bn\	-mi-	8g\	-mi-	.	8dd\	.	-mi-
8D\	-ne	8B\	-ne	8g\	-ne	.	8dd\	.	-ne
=10	=10	=10	=10	=10	=10	=10	=10	=10	=10
8D\	Do-	8Bn\	Do-	8g\	Do-	.	8dd\	.	Do-
8C\	-mi-	8c\	-mi-	8g\	-mi-	.	8ee-\	.	-mi-
4C\	-ni,	4c\	-ni	4g\	-ni,	.	4ee-\	.	-ni,
4r	.	4r	.	4r	.	.	4r	.	.
4F\	qui	4A\	qui	4f\	qui	.	4cc\	.	qui
=11	=11	=11	=11	=11	=11	=11	=11	=11	=11
4BB-/	ve-	4B-\	ve-	4f\	ve-	.	4dd\	.	ve-
!	!	!	!	!	!	!	!LO:LB:g=original	!	!
8F\	-nit	8A\	-nit	8f\	-nit	.	8cc\	.	-nit
8F\	in	8A\	in	8f\	in	.	8cc\	.	in
4B-\	no-	4B-\	no-	4f\	no-	.	4dd\	.	no-
8G\	-mi-	8c\	-mi-	8b-\	-mi-	.	8een\	.	-mi-
8G\	-ne	8c\	-ne	8b-\	-ne	.	8ee\	.	-ne
!	!	!LO:LB:g=original	!	!	!	!	!	!	!
=12	=12	=12	=12	=12	=12	=12	=12	=12	=12
8G\	Do-	8c\	Do-	8b-\	Do-	.	8.een\	.	Do-
8F\	-mi-	8c\	-mi-	8a\	-mi-	.	.	.	.
.	.	.	.	.	.	.	16ff\	.	-mi-
4F\	-ni,	4c\	-ni	4a\	-ni	.	4ff\	.	-ni
!LO:LB:g=original	!	!	!	!	!	!	!	!	!
4r	.	4r	.	4r	.	.	4r	.	.
8BB-/	ve-	8B-\	ve-	8d\	ve-	.	4f/	.	in
8BB-/	-nit	8B-\	-nit	8d\	-nit	.	.	.	.
!	!	!	!	!LO:LB:g=original	!	!	!	!	!
=13	=13	=13	=13	=13	=13	=13	=13	=13	=13
2BB-/	in	2B-\	in	2d\	in	.	2f/	.	no-
4BB-/	no-	4d\	no-	4d\	no-	.	4b-\	.	.
8B-\	-mi-	8B-\	-mi-	8f\	-mi-	.	8dd\	.	-mi-
8B-\	-ne	8B-\	-ne	8f\	-ne	.	8dd\	.	-ne
=14	=14	=14	=14	=14	=14	=14	=14	=14	=14
2D\	Do-	2B-\	Do-	2b-\	no-	.	2.ff\	.	No-
2D\	-mi-	2B-\	-mi-	2b-\	-mi-	.	.	.	.
.	.	.	.	.	.	.	4ff\	.	-mi-
=15	=15	=15	=15	=15	=15	=15	=15	=15	=15
2.D;\	-ni,	2.c;\	-ni	2.a;\	-ne	.	2.ff#X;\	.	-ne
4D\	in	4c\	in	4a\	in	.	4ff#\	.	in
!	!	!	!	!	!	!	!LO:LB:g=original	!	!
=16	=16	=16	=16	=16	=16	=16	=16	=16	=16
4E-\	no-	8B-X\L	no-	4g\	no-	.	8gg\L	.	no-
.	.	8Bn\J	.	.	.	.	8dd\J	.	.
8E-\	-mi-	8c\	-mi-	8g\	-mi-	.	8ee-\	.	-mi-
8E-\	-ne	8e-\	-ne	8g\	-ne	.	8gg\	.	-ne
4F\	Do-	4d\	Do-	4a\	Do-	.	4ffn\	.	Do-
4F\	-mi-	8f\L	-mi-	4b-\	-mi-	.	4a\	.	-mi-
.	.	8e-\J	.	.	.	.	.	.	.
!	!	!LO:LB:g=original	!	!	!	!	!	!	!
=17	=17	=17	=17	=17	=17	=17	=17	=17	=17
2BB-/	-ni.	2d\	-ni	2f\	-ni.	.	2b-\	.	-ni.
4r	.	4r	.	4r	.	.	4r	.	.
!LO:LB:g=original	!	!	!	!	!	!	!	!	!
!LO:TX:a:t=P:problem:partia przypominająca nad pauzami	!	!	!	!	!	!	!	!	!
8r	.	8r	.	8r	.	.	8r	.	.
=18||	=18||	=18||	=18||	=18||	=18||	=18||	=18||	=18||	=18||
*k[b-]	*	*k[b-]	*	*k[b-]	*	*	*k[b-]	*	*
*M6/8	*	*M6/8	*	*M6/8	*	*	*M6/8	*	*
8r	.	8r	.	8a\	O-	.	8cc\	.	O-
!	!	!	!	!LO:LB:g=original	!	!	!	!	!
=19	=19	=19	=19	=19	=19	=19	=19	=19	=19
!LO:TX:b:t=1	!	!LO:TX:a:t=1.	!	!	!	!	!	!	!
2.r	.	2.r	.	8a\L	-san-	.	8cc\L	.	-san-
.	.	.	.	8f\J	.	.	8a\J	.	.
.	.	.	.	8g\	-na	.	8b-\	.	-na
.	.	.	.	8a\L	in	.	8cc\L	.	in
.	.	.	.	8b-\J	.	.	8dd\J	.	.
.	.	.	.	8g\	ex-	.	8een\	.	ex-
=20	=20	=20	=20	=20	=20	=20	=20	=20	=20
4r	.	4r	.	8a\L	-cel-	.	8ff\L	.	-cel-
.	.	.	.	8cc\	.	.	8ee\	.	.
8r	.	8r	.	8b-\J	.	.	8dd\J	.	.
4r	.	4r	.	4a\	-sis	.	4cc\	.	-sis
8F\	O-	8c\	o-	8a\	o-	.	8cc\	.	o-
!	!	!	!	!	!	!	!LO:LB:g=original	!	!
=21	=21	=21	=21	=21	=21	=21	=21	=21	=21
4E\	-san-	4c\	-san-	4g\	-san-	.	8.b-\L	.	-san-
.	.	.	.	.	.	.	16cc\Jk	.	.
8E\	-na	8c\	-na	8g\	-na	.	8b-\	.	-na
4F\	in	4c\	in	8f\L	in	.	8a\L	.	in
.	.	.	.	8a\J	.	.	8ff\J	.	.
8A\	ex-	8c\	ex-	8f\	ex-	.	8a\	.	ex-
=22	=22	=22	=22	=22	=22	=22	=22	=22	=22
4.c\	-cel-	4.c\	-cel-	4a\	-cel-	.	4cc\	.	-cel-
.	.	.	.	8f\	.	.	8a\	.	.
4C/	-sis.	4c\	-sis,	4e\	-sis,	.	4g\	.	-sis
!LO:TX:a:t:P:problem=partia przypominająca nad pauzami	!	!	!	!	!	!	!	!	!
8r	.	8r	.	8a\	O-	.	8cc\	.	O-
=23	=23	=23	=23	=23	=23	=23	=23	=23	=23
!LO:TX:b:t=1.	!	!LO:TX:a:t=1.	!	!	!	!	!	!	!
2.r	.	2.r	.	8a\L	-san-	.	8cc\L	.	-san-
.	.	.	.	8f\J	.	.	8a\J	.	.
.	.	.	.	8g\	-na	.	8b-\	.	-na
!	!	!	!	!LO:LB:g=original	!	!	!	!	!
.	.	.	.	8a\L	in	.	8cc\L	.	in
.	.	.	.	8b-\J	.	.	8dd\J	.	.
.	.	.	.	8g\	ex-	.	8ee\	.	ex-
!LO:LB:g=original	!	!LO:LB:g=original	!	!	!	!	!	!	!
=24	=24	=24	=24	=24	=24	=24	=24	=24	=24
4r	.	4r	.	8a\L	-cel-	.	8ff\L	.	-cel-
.	.	.	.	8cc\J	.	.	8ee\	.	.
8r	.	8r	.	8b-\	.	.	8dd\J	.	.
4r	.	4r	.	4a\	-sis	.	4cc\	.	-sis
8F\	O-	8c\	o-	8a\	o-	.	8cc\	.	o-
=25	=25	=25	=25	=25	=25	=25	=25	=25	=25
4D\	-san-	4d\	-san-	4a\	-san-	.	4ff\	.	-san-
8D\	-na	8d\	-na	8a\	-na	.	8ff\	.	-na
!	!	!	!	!	!	!	!LO:LB:g=original	!	!
4F\	in	4d\	in	4a\	in	.	8ff\L	.	in
.	.	.	.	.	.	.	8a\J	.	.
8F\	ex-	8d\	ex-	8a\	ex-	.	8dd\	.	ex-
=26	=26	=26	=26	=26	=26	=26	=26	=26	=26
.	.	.	.	.	.	.	8qcc/	.	.
4.G\	-cel-	4.d\	-cel-	4.f\	-cel-	.	8.bn\L	.	-cel-
.	.	.	.	.	.	.	16a\K	.	.
.	.	.	.	.	.	.	8b\J	.	.
4C/	-sis.	4c\	-sis	4e\	-sis	.	4cc\	.	-sis,
!LO:TX:a:t=P:problem:partia przypominająca nad pauzami	!	!	!	!	!	!	!	!	!
8r	.	8r	.	8a\	o-	.	8cc\	.	o-
=27	=27	=27	=27	=27	=27	=27	=27	=27	=27
2.r	.	8c\	o-	4g\	-san-	.	4b-X\	.	-san-
.	.	8c\	-san-	.	.	.	.	.	.
.	.	8c\	-na	8f\	-na	.	8a\	.	-na
.	.	4c\	in	8e\L	in	.	8g\L	.	in
.	.	.	.	8f\J	.	.	8a\J	.	.
.	.	8c\	ex-	8g\	ex-	.	8b-\	.	ex-
!	!	!	!	!LO:LB:g=original	!	!	!	!	!
=28	=28	=28	=28	=28	=28	=28	=28	=28	=28
2.r	.	4.F/	-cel-	8f\L	-cel-	.	8a\L	.	-cel-
.	.	.	.	8b-\	.	.	8dd\	.	.
.	.	.	.	8a\J	.	.	8cc\J	.	.
.	.	4F/	-sis	4a\	-sis	.	4cc\	.	-sis,
.	.	8r	.	8a\	o-	.	8cc\	.	o-
=29	=29	=29	=29	=29	=29	=29	=29	=29	=29
2.r	.	8c\	o-	4g\	-san-	.	4b-X\	.	-san-
.	.	8c\	-san-	.	.	.	.	.	.
.	.	8c\	-na	8f\	-na	.	8a\	.	-na
!	!	!LO:LB:g=original	!	!	!	!	!	!	!
.	.	4c\	in	8e\L	in	.	8g\L	.	in
.	.	.	.	8f\J	.	.	8a\J	.	.
.	.	8c\	ex-	8g\	ex-	.	8b-\	.	ex-
!LO:LB:g=original	!	!	!	!	!	!	!LO:LB:g=original	!	!
=30	=30	=30	=30	=30	=30	=30	=30	=30	=30
4r	.	4.F/	-cel-	8f\L	-cel-	.	8a\L	.	-cel-
.	.	.	.	8b-\	.	.	8dd\	.	.
8r	.	.	.	8a\J	.	.	8cc\J	.	.
4r	.	8F/	-sis	4a\	-sis	.	4cc\	.	-sis
.	.	8r	.	.	.	.	.	.	.
8F\	O-	8A\	o-	8a\	O-	.	8cc\	.	o-
=31	=31	=31	=31	=31	=31	=31	=31	=31	=31
4BB-/	-san-	4B-\	-san-	4f\	-san-	.	4dd\	.	-san-
8BB-/	-na	8B-\	-na	8f\	-na	.	8dd\	.	-na
4C/	in	4B-\	in	4g\	in	.	4ee\	.	in
8C/	ex-	8B-\	ex-	8g\	ex-	.	8ee\	.	ex-
=32	=32	=32	=32	=32	=32	=32	=32	=32	=32
4.C#X;/	-cel-	4.B-;\	-cel-	4.en;\	-cel-	.	4.gg;\	.	-cel-
4D;\	-sis	4A;\	-sis	4f;\	-sis,	.	4ff;\	.	-sis,
8D\	o-	8A\	o-	8f\	o-	.	8ff\	.	o-
!	!	!	!	!LO:LB:g=original	!	!	!	!	!
=33	=33	=33	=33	=33	=33	=33	=33	=33	=33
4BB-/	-san-	4G/	-san-	4f\	-san-	.	4dd\	.	-san-
8BB-/	-na	8G/	-na	8f\	-na	.	8dd\	.	-na
4C/	in	4A\	in	4f\	in	.	4cc\	.	in
8C/	ex-	8B-\	ex-	8g\	ex-	.	8e/	.	ex-
=34	=34	=34	=34	=34	=34	=34	=34	=34	=34
4.C/	-cel-	4.B-\	-cel-	4.en\	-cel-	.	4.g/	.	-cel-
4FF/	-sis.	4A\	-sis.	4f\	-sis.	.	4f/	.	-sis.
==	==	==	==	==	==	==	==	==	==
*-	*-	*-	*-	*-	*-	*-	*-	*-	*-
!!!system-decoration: [(s1,s2,s3,s4)]
!!!ENC: Berenika Jozajtis
!!!END: 2023-10-31
!!!ENC: Leszek Kubiak
!!!END: 2024-06-24
!!!RDF**kern: Z = caesura
